src/pos-icons/credit-card-minus-outline.svg

<svg height="24" viewBox="0 0 24 24" width="24" xmlns="http://www.w3.org/2000/svg"><path d="m24 18v2h-8v-2zm-5-10v-2h-16v2zm0 4h-16v6h11v2h-11c-1.1 0-2-.9-2-2v-12c0-1.1.9-2 2-2h16c1.1 0 2 .9 2 2v10h-2z"/></svg>

<?xml version="1.0" encoding="UTF-8"?><!DOCTYPE svg PUBLIC "-//W3C//DTD SVG 1.1//EN" "http://www.w3.org/Graphics/SVG/1.1/DTD/svg11.dtd"><svg xmlns="http://www.w3.org/2000/svg" xmlns:xlink="http://www.w3.org/1999/xlink" version="1.1" id="mdi-credit-card-minus-outline" width="24" height="24" viewBox="0 0 24 24"><path d="M24 18V20H16V18H24M19 8V6H3V8H19M19 12H3V18H14V20H3C1.9 20 1 19.1 1 18V6C1 4.9 1.9 4 3 4H19C20.1 4 21 4.9 21 6V16H19V12" /></svg>
